archdroid-icon-theme/Archdroid-LightGreen/apps/scalable/preferences-desktop-wallpaper.svg

<svg fill="#8BC34A" height="48" viewBox="0 0 48 48" width="48" xmlns="http://www.w3.org/2000/svg"><path d="m8 8h14v-4h-14c-2.21 0-4 1.79-4 4v14h4zm12 18-8 10h24l-6-8-4.06 5.42zm14-9c0-1.66-1.34-3-3-3s-3 1.34-3 3 1.34 3 3 3 3-1.34 3-3zm6-13h-14v4h14v14h4v-14c0-2.21-1.79-4-4-4zm0 36h-14v4h14c2.21 0 4-1.79 4-4v-14h-4zm-32-14h-4v14c0 2.21 1.79 4 4 4h14v-4h-14z" fill="#8BC34A"/></svg>

<svg fill="#8BC34A" height="48" viewBox="0 0 48 48" width="48" xmlns="http://www.w3.org/2000/svg"><path d="M8 8h14V4H8C5.79 4 4 5.79 4 8v14h4V8zm12 18l-8 10h24l-6-8-4.06 5.42L20 26zm14-9c0-1.66-1.34-3-3-3s-3 1.34-3 3 1.34 3 3 3 3-1.34 3-3zm6-13H26v4h14v14h4V8c0-2.21-1.79-4-4-4zm0 36H26v4h14c2.21 0 4-1.79 4-4V26h-4v14zM8 26H4v14c0 2.21 1.79 4 4 4h14v-4H8V26z"/></svg>
